X: 14622
T: Gan Ainm
R: reel
M: 4/4
K: Bminor
K: F#minor
fccc fg a2-|acfg abag|fccc fgac|BA G/A/B AFFe|
fccc fg a2-|acfg abag|feed dc c/d/e|dccB BA G/A/B||
AGBG AFFG|AGBG A/B/c FG|AGBA cBce|efba agge|
AGBG AFFG|AGBG A/B/c F2|feed dc c/d/e|dccB BABc||

